X: 36062
T: Scartaglen, The
R: polka
M: 2/4
K: Gmajor
|:G2 G>A|Bd de/f/|gB B/A/G/A/|BA AB/A/|
G2 G>A|Bd de/f/|gB AB/A/|G2 G2:|
|:dg ga/g/|fe e/f/g/e/|dB B/A/G/A/|BA A>B|
dg ga/g/|fe e/f/g/e/|dB AB/A/|G2 G2:|
|:g2 a2|b2 ba|gf/g/ ag/a/|b2 ba|
gb e/f/g/e/|dB g/a/g/e/|dB AB/A/|G2 G2:|

